X:754
%%etbk:tnset id:483,pos:4,rep:3x,ant:
%%etbk:wsite https://thesession.org/tunes/10037
%%etbk:pldat 2015-06-17T17:35,2015-06-13T16:34,2015-06-10T17:47,2015-06-08T18:08
T: The Jubilant Goat
Z: Piano Box Version by Martin Fleischmann
H: Created 2015-06-08 /  Last Modified 2015-06-17
R: polka
M: 2/4
L: 1/8
K: Amaj
|:!3!AE/F/ !3!A!4!B | !3!c!5!e !2!e!5!a | !3!fa/f/ !1!e!3!c | !2!BA B2 |
AE/F/ AB | ce ea | fa/f/ ec | Bc A2 :|
fa/f/ ec | BA B2 | AE/F/ AB | !3!ce B2 |
|1 af ec | BA B2 | AE/F/ AB | cA A2 :|
|2 AE/F/ AB | ce ea | fa/f/ ec |!coda! Bc A2|
|!coda! B2 z2| z4 |z2 A2 ||


